sources/design/Outline/h.svg

<svg:svg xmlns:cc="http://creativecommons.org/ns#" xmlns:dc="http://purl.org/dc/elements/1.1/" xmlns:inkscape="http://www.inkscape.org/namespaces/inkscape" xmlns:rdf="http://www.w3.org/1999/02/22-rdf-syntax-ns#" xmlns:sodipodi="http://sodipodi.sourceforge.net/DTD/sodipodi-0.dtd" xmlns:svg="http://www.w3.org/2000/svg" xml:space="preserve" width="1000" height="1000" version="1.1" style="clip-rule:evenodd;fill-rule:evenodd;image-rendering:optimizeQuality;shape-rendering:geometricPrecision;text-rendering:geometricPrecision" viewBox="0 0 1000 1000" id="svg10" sodipodi:docname="h.svg" inkscape:version="1.1.1 (3bf5ae0d25, 2021-09-20)"><svg:text text-anchor="middle" x="253.36914" y="2.0437603" id="top" inkscape:label="top" style="clip-rule:evenodd;fill-rule:evenodd;image-rendering:optimizeQuality;shape-rendering:geometricPrecision;text-rendering:geometricPrecision">✛</svg:text><svg:metadata id="metadata14"><rdf:RDF><cc:Work rdf:about=""><dc:format>image/svg+xml</dc:format><dc:type rdf:resource="http://purl.org/dc/dcmitype/StillImage" /></cc:Work></rdf:RDF></svg:metadata><sodipodi:namedview pagecolor="#ffffff" bordercolor="#666666" borderopacity="1" objecttolerance="10" gridtolerance="10" guidetolerance="10" inkscape:pageopacity="0" inkscape:pageshadow="2" inkscape:window-width="1920" inkscape:window-height="1009" id="namedview12" showgrid="false" inkscape:zoom="0.84890884" inkscape:cx="588.4024" inkscape:cy="318.05535" inkscape:window-x="1920" inkscape:window-y="0" inkscape:window-maximized="1" inkscape:current-layer="svg10" showguides="true" inkscape:guide-bbox="true" inkscape:document-rotation="0" inkscape:pagecheckerboard="0"><sodipodi:guide position="0,1000" orientation="0,1" id="guide16" inkscape:label="" inkscape:locked="true" inkscape:color="rgb(0,0,255)" /><sodipodi:guide position="1763.3122,2036.1693" orientation="1000,0" id="guide18" /><sodipodi:guide position="0,200" orientation="0,1" id="guide20" inkscape:label="base" inkscape:locked="true" inkscape:color="rgb(0,0,255)" /><inkscape:grid type="xygrid" id="grid24" originx="-473.37552" originy="-489.69235" /><sodipodi:guide position="0,0" orientation="0,1" id="guide34" inkscape:label="bottom" inkscape:locked="true" inkscape:color="rgb(0,0,255)" /><sodipodi:guide position="225.05109,1693.3186" orientation="0,1" id="guide44" inkscape:label="" inkscape:locked="false" inkscape:color="rgb(0,0,255)" /><sodipodi:guide position="0,900" orientation="0,1" id="guide46" inkscape:label="" inkscape:locked="true" inkscape:color="rgb(0,0,255)" /><sodipodi:guide position="467.28501,377.10493" orientation="1,0" id="guide841" inkscape:label="width" />    <sodipodi:guide position="110.73038,799.74293" orientation="0,-1" id="guide848" /></sodipodi:namedview>
 <svg:defs id="defs4"><inkscape:path-effect effect="fillet_chamfer" id="path-effect1758" is_visible="true" lpeversion="1" satellites_param="F,0,1,1,0,19.732403,0,1 @ F,0,1,1,0,19.732403,0,1 @ F,0,0,1,0,0,0,1 @ F,0,0,1,0,0,0,1 @ F,0,0,1,0,0,0,1 @ F,0,0,1,0,0,0,1 @ F,0,0,1,0,0,0,1 @ F,0,0,1,0,0,0,1 @ F,0,0,1,0,0,0,1 @ F,0,0,1,0,0,0,1 @ F,0,0,1,0,0,0,1 @ F,0,1,1,0,19.732403,0,1 @ F,0,1,1,0,19.732403,0,1 @ F,0,0,1,0,0,0,1 @ F,0,0,1,0,0,0,1 @ F,0,0,1,0,0,0,1 @ F,0,0,1,0,19.732403,0,1 @ F,0,1,1,0,19.732403,0,1 @ F,0,0,1,0,0,0,1 @ F,0,0,1,0,0,0,1 @ F,0,0,1,0,0,0,1 @ F,0,0,1,0,0,0,1 @ F,0,0,1,0,0,0,1 @ F,0,0,1,0,0,0,1 @ F,0,0,1,0,0,0,1 @ F,0,0,1,0,0,0,1 @ F,0,0,1,0,0,0,1 @ F,0,0,1,0,0,0,1 @ F,0,0,1,0,0,0,1 @ F,0,0,1,0,0,0,1" unit="px" method="auto" mode="F" radius="0" chamfer_steps="1" flexible="false" use_knot_distance="true" apply_no_radius="true" apply_with_radius="true" only_selected="false" hide_knots="false" /><inkscape:path-effect effect="fillet_chamfer" id="path-effect863" is_visible="true" lpeversion="1" satellites_param="F,0,0,1,0,31.426612,0,1 @ F,0,0,1,0,31.426612,0,1 @ F,0,0,1,0,0,0,1 @ F,0,0,1,0,0,0,1 @ F,0,0,1,0,0,0,1 @ F,0,0,1,0,0,0,1 @ F,0,0,1,0,0,0,1 @ F,0,0,1,0,0,0,1 @ F,0,0,1,0,0,0,1 @ F,0,0,1,0,0,0,1 @ F,0,0,1,0,0,0,1 @ F,0,0,1,0,31.426612,0,1 @ F,0,0,1,0,31.426612,0,1 @ F,0,0,1,0,0,0,1 @ F,0,0,1,0,0,0,1 @ F,0,0,1,0,0,0,1 @ F,0,0,1,0,31.426612,0,1 @ F,0,1,1,0,28.074298,0,1 @ F,0,0,1,0,0,0,1 @ F,0,0,1,0,0,0,1 @ F,0,0,1,0,0,0,1 @ F,0,0,1,0,0,0,1 @ F,0,0,1,0,0,0,1 @ F,0,0,1,0,0,0,1 @ F,0,0,1,0,0,0,1 @ F,0,0,1,0,0,0,1 @ F,0,0,1,0,0,0,1 @ F,0,0,1,0,0,0,1" unit="px" method="auto" mode="F" radius="0" chamfer_steps="1" flexible="false" use_knot_distance="true" apply_no_radius="true" apply_with_radius="true" only_selected="true" hide_knots="false" /><inkscape:path-effect effect="fillet_chamfer" id="path-effect850" is_visible="true" lpeversion="1" satellites_param="F,0,0,1,0,33.316232,0,1 @ F,0,0,1,0,21.58481,0,1 @ F,0,0,1,0,0,0,1 @ F,0,0,1,0,0,0,1 @ F,0,0,1,0,0,0,1 @ F,0,0,1,0,0,0,1 @ F,0,0,1,0,0,0,1 @ F,0,0,1,0,0,0,1 @ F,0,0,1,0,0,0,1 @ F,0,0,1,0,0,0,1 @ F,0,0,1,0,0,0,1 @ F,0,0,1,0,20.387653,0,1 @ F,0,0,1,0,27.435208,0,1 @ F,0,0,1,0,0,0,1 @ F,0,0,1,0,0,0,1 @ F,0,0,1,0,0,0,1 @ F,0,0,1,0,22.815159,0,1 @ F,0,0,1,0,29.964362,0,1 @ F,0,0,1,0,0,0,1 @ F,0,0,1,0,0,0,1 @ F,0,0,1,0,0,0,1 @ F,0,0,1,0,0,0,1 @ F,0,0,1,0,0,0,1 @ F,0,0,1,0,0,0,1 @ F,0,0,1,0,0,0,1 @ F,0,0,1,0,0,0,1 @ F,0,0,1,0,0,0,1" unit="px" method="auto" mode="F" radius="0" chamfer_steps="1" flexible="false" use_knot_distance="true" apply_no_radius="true" apply_with_radius="true" only_selected="true" hide_knots="false" /><inkscape:path-effect effect="spiro" id="path-effect849" is_visible="true" lpeversion="1" /><inkscape:path-effect effect="spiro" id="path-effect851" is_visible="true" lpeversion="1" />
  <svg:style type="text/css" id="style2">
   
    .fil0 {fill:#EF7F1A;fill-rule:nonzero}
   
  </svg:style>
 <inkscape:path-effect effect="spiro" id="path-effect1214" is_visible="true" lpeversion="1" /><inkscape:path-effect effect="spiro" id="path-effect1195" is_visible="true" lpeversion="1" /><inkscape:path-effect effect="spiro" id="path-effect992" is_visible="true" lpeversion="1" /><inkscape:path-effect effect="spiro" id="path-effect1060" is_visible="true" lpeversion="1" /><inkscape:path-effect effect="spiro" id="path-effect1047" is_visible="true" lpeversion="1" /><inkscape:path-effect effect="spiro" id="path-effect1085" is_visible="true" lpeversion="1" /><inkscape:path-effect effect="spiro" id="path-effect1286" is_visible="true" lpeversion="1" /><inkscape:path-effect effect="spiro" id="path-effect868" is_visible="true" lpeversion="1" /><inkscape:path-effect effect="fillet_chamfer" id="path-effect870" is_visible="true" lpeversion="1" satellites_param="F,0,0,1,0,0,0,1 @ F,0,0,1,0,0,0,1 @ F,0,0,1,0,0,0,1 @ F,0,0,1,0,0,0,1 @ F,0,0,1,0,0,0,1 @ F,0,0,1,0,0,0,1 @ F,0,0,1,0,0,0,1 @ F,0,1,1,0,30.932323,0,1 @ F,0,1,1,0,30.932323,0,1 @ F,0,0,1,0,0,0,1 @ F,0,0,1,0,0,0,1 @ F,0,0,1,0,0,0,1 @ F,0,0,1,0,0,0,1 @ F,0,0,1,0,0,0,1 @ F,0,0,1,0,0,0,1 @ F,0,0,1,0,0,0,1 @ F,0,0,1,0,0,0,1 @ F,0,0,1,0,0,0,1 @ F,0,0,1,0,0,0,1 @ F,0,0,1,0,0,0,1 @ F,0,0,1,0,0,0,1 @ F,0,1,1,0,30.932323,0,1 @ F,0,1,1,0,30.932323,0,1 @ F,0,0,1,0,0,0,1 @ F,0,0,1,0,0,0,1 @ F,0,0,1,0,0,0,1" unit="px" method="auto" mode="F" radius="0" chamfer_steps="1" flexible="false" use_knot_distance="true" apply_no_radius="true" apply_with_radius="true" only_selected="true" hide_knots="false" /></svg:defs>
 
<svg:g id="path847"><svg:path style="color:#000000;clip-rule:nonzero;fill:#1a5fb4;fill-rule:nonzero;stroke-linecap:round;stroke-linejoin:round;-inkscape-stroke:none;paint-order:fill stroke markers;shape-rendering:auto" d="M 39.578125,-27.755859 C 14.565923,-27.848838 -8.4488631,-6.6360183 -9.1933594,18.845703 C -10.047348,48.074997 -10.383854,77.3193 -10.201172,106.56055 C -9.6403366,196.33142 -4.2006403,285.6886 3.1796875,374.51172 C 13.306383,496.3877 25.58158,617.30281 -7.2226562,726.23242 C -10.733311,737.88989 -14.753343000000001,749.39693 -19.263672,760.70703 C -24.025682,772.64824 -24.239565,787.8870900000001 -16.933594,800.41602 C -9.6276228,812.94494 4.301593199999999,820.5096 17.369141,821.88867 L 110.94530999999999,831.76367 C 137.78011999999998,834.5956500000001 164.03739,810.4508500000001 163.17577999999997,783.32227 C 162.45857999999998,760.74039 161.35523999999998,738.17121 159.86718999999997,715.62695 C 155.77803999999998,653.67563 149.32802999999996,594.1247599999999 155.66601999999997,537.80273 C 160.13621999999998,498.07862 171.12229999999997,459.62206 190.57226999999997,427.16211 C 209.40995999999998,395.72398 236.93437999999998,369.47587999999996 268.90819999999997,354.82227 C 275.62298999999996,351.74488 281.50176,349.72862 286.29686999999996,348.95898 C 290.92740999999995,348.21576 294.81251999999995,348.69676 296.90038999999996,349.5 C 299.65583999999996,350.56007 304.00380999999993,354.19437 307.18749999999994,359.78711 C 310.5607099999999,365.71277 313.18292999999994,374.13509 315.33007999999995,384.41992 C 331.27973,460.81877 311.03749999999997,545.1759 300.67578,634.36328 C 294.99472999999995,683.26233 293.02410999999995,732.58121 294.7793,781.77539 C 295.75856,809.22216 321.06931999999995,830.9653500000001 348.06055,828.48828 L 461.44140999999996,818.08203 C 473.12924,817.0094 490.00703999999996,810.60756 496.60936999999996,793.54687 C 503.21171,776.48619 495.77782999999994,761.61636 488.60351999999995,752.75195 C 482.79047999999995,745.5695099999999 477.48070999999993,737.9757199999999 472.73632999999995,730.05664 C 446.67715999999996,686.56002 437.51769999999993,632.09486 440.41211,578.05469 C 443.25091,525.0526100000001 457.52464,469.7733400000001 463.88477,410.02539 C 468.62023,365.53969 468.75594,316.82442000000003 450.4707,270.53125 C 441.29357000000005,247.29729 427.51714000000004,225.20682 408.45117000000005,207.16602 C 389.29182000000003,189.03685000000002 365.17492000000004,175.49998 338.05469000000005,170.27148 C 303.99738,163.70559 270.35683000000006,171.07089 241.73437000000007,184.9707 C 213.37854000000007,198.74103 190.17329000000007,218.44323 170.08594000000005,238.69335999999998 C 155.70662000000004,253.18919999999997 142.36162000000004,268.64583999999996 130.08984000000004,284.89257999999995 C 130.92206000000004,227.05539999999996 134.91320000000005,170.53145999999995 148.88086000000004,117.23046999999994 C 155.25629000000004,92.90163599999994 163.72062000000005,69.10554299999994 174.13672000000003,46.207030999999944 C 179.43474000000003,34.55998199999994 180.46802000000002,19.136909999999943 173.41016000000002,6.156249999999943 C 166.35229,-6.824409900000056 152.30060000000003,-14.580230000000057 139.33789000000002,-16.128906000000057 L 44.601562000000015,-27.447266000000056 C 42.92233800000002,-27.647885000000056 41.24560500000001,-27.749661000000057 39.578125000000014,-27.755859000000054 L 39.578125,-27.755859 M 50.515625,33.685547 L 111.12109000000001,40.925781 C 103.06648,60.828749 96.284357,81.24507 90.839844,102.02148 C 70.146685,180.98716 69.327296,261.40688 69.986328,338.625 C 70.129569,355.40843 70.557536,372.18733 70.853516,388.96875 C 69.039161,393.38603 67.32914099999999,397.84163 65.650391,402.3125 C 64.722581,391.42585 63.869434,380.31229 62.974609,369.54296999999997 C 55.668003,281.60709 50.346062,193.77933 49.798828,106.18555 C 49.647838,82.017067 49.940792,57.847722 50.515625,33.685547 M 312.53906,227.91211 C 317.39551,227.89321 322.1395,228.30723 326.69531,229.18555 C 341.16711,231.97556 355.60493,239.76424 367.21289,250.74805 C 378.91424,261.82022 388.28218000000004,276.41211 394.66602,292.57422 C 407.50271,325.07318000000004 408.45446,363.92157000000003 404.22266,403.67578000000003 C 398.49371,457.49436000000003 383.76750000000004,513.80309 380.49805000000003,574.8457000000001 C 377.13458,637.6436000000001 387.19179,704.01831 421.26562,760.8925800000001 C 421.38615,761.0937500000001 421.52737,761.28159 421.64844,761.48242 L 354.53906,767.64062 C 353.58754,725.45408 355.40606,683.1993200000001 360.27539,641.28711 C 370.01727,557.4349 393.71346,466.28634 374.0625,372.15819999999997 C 371.38709,359.34299999999996 367.63312,344.68589 359.33203,330.10351999999995 C 350.84142999999995,315.18821999999994 337.71229999999997,300.9150599999999 318.44336,293.50194999999997 C 304.02743999999996,287.95588999999995 289.61807,287.65768999999995 276.78906,289.7168 C 264.12463,291.74949 253.27056000000002,295.98746 243.91016000000002,300.27734 C 199.34708,320.70061999999996 163.53968000000003,355.54087999999996 139.10352,396.32227 C 136.31289,400.97953 133.72657,405.72029 131.23242,410.49609 C 131.16322,407.31534 131.13205,404.13399 131.06835999999998,400.95311999999996 C 150.87415,356.43294 178.51450999999997,315.39323999999993 212.68358999999998,280.94726999999995 C 230.09268999999998,263.39708999999993 248.40671999999998,248.43180999999996 267.94530999999995,238.94335999999996 C 282.39928999999995,231.92412999999996 297.96970999999996,227.96864999999997 312.53905999999995,227.91210999999996 L 312.53906,227.91211 M 93.695312,561.83008 C 91.038323,616.18126 96.6577,668.97124 99.998047,719.5781199999999 C 101.11863,736.5551899999999 101.94339,753.5498999999999 102.61328,770.5507799999999 L 43.431641000000006,764.3046899999999 C 45.847846000000004,757.43171 48.12747600000001,750.51186 50.228516000000006,743.5351599999999 C 68.03666700000001,684.4014799999999 73.98763500000001,624.2497299999999 74.32617200000001,564.4160199999999 L 93.695312,561.83008" id="path11705" /></svg:g></svg:svg>

<svg:svg xmlns:cc="http://creativecommons.org/ns#" xmlns:dc="http://purl.org/dc/elements/1.1/" xmlns:inkscape="http://www.inkscape.org/namespaces/inkscape" xmlns:rdf="http://www.w3.org/1999/02/22-rdf-syntax-ns#" xmlns:sodipodi="http://sodipodi.sourceforge.net/DTD/sodipodi-0.dtd" xmlns:svg="http://www.w3.org/2000/svg" xml:space="preserve" width="1000" height="1000" version="1.1" style="clip-rule:evenodd;fill-rule:evenodd;image-rendering:optimizeQuality;shape-rendering:geometricPrecision;text-rendering:geometricPrecision" viewBox="0 0 1000 1000" id="svg10" sodipodi:docname="h.svg" inkscape:version="1.1.1 (3bf5ae0d25, 2021-09-20)"><svg:text text-anchor="middle" x="253.36914" y="2.0437603" id="top" inkscape:label="top" style="clip-rule:evenodd;fill-rule:evenodd;image-rendering:optimizeQuality;shape-rendering:geometricPrecision;text-rendering:geometricPrecision">✛</svg:text><svg:metadata id="metadata14"><rdf:RDF><cc:Work rdf:about=""><dc:format>image/svg+xml</dc:format><dc:type rdf:resource="http://purl.org/dc/dcmitype/StillImage" /></cc:Work></rdf:RDF></svg:metadata><sodipodi:namedview pagecolor="#ffffff" bordercolor="#666666" borderopacity="1" objecttolerance="10" gridtolerance="10" guidetolerance="10" inkscape:pageopacity="0" inkscape:pageshadow="2" inkscape:window-width="1920" inkscape:window-height="1009" id="namedview12" showgrid="false" inkscape:zoom="0.84890884" inkscape:cx="588.4024" inkscape:cy="318.05535" inkscape:window-x="1920" inkscape:window-y="0" inkscape:window-maximized="1" inkscape:current-layer="svg10" showguides="true" inkscape:guide-bbox="true" inkscape:document-rotation="0" inkscape:pagecheckerboard="0"><sodipodi:guide position="0,1000" orientation="0,1" id="guide16" inkscape:label="" inkscape:locked="true" inkscape:color="rgb(0,0,255)" /><sodipodi:guide position="1763.3122,2036.1693" orientation="1000,0" id="guide18" /><sodipodi:guide position="0,200" orientation="0,1" id="guide20" inkscape:label="base" inkscape:locked="true" inkscape:color="rgb(0,0,255)" /><inkscape:grid type="xygrid" id="grid24" originx="-473.37552" originy="-489.69235" /><sodipodi:guide position="0,0" orientation="0,1" id="guide34" inkscape:label="bottom" inkscape:locked="true" inkscape:color="rgb(0,0,255)" /><sodipodi:guide position="225.05109,1693.3186" orientation="0,1" id="guide44" inkscape:label="" inkscape:locked="false" inkscape:color="rgb(0,0,255)" /><sodipodi:guide position="0,900" orientation="0,1" id="guide46" inkscape:label="" inkscape:locked="true" inkscape:color="rgb(0,0,255)" /><sodipodi:guide position="467.28501,377.10493" orientation="1,0" id="guide841" inkscape:label="width" />    <sodipodi:guide position="110.73038,799.74293" orientation="0,-1" id="guide848" /></sodipodi:namedview>
 <svg:defs id="defs4"><inkscape:path-effect effect="fillet_chamfer" id="path-effect1758" is_visible="true" lpeversion="1" satellites_param="F,0,1,1,0,19.732403,0,1 @ F,0,1,1,0,19.732403,0,1 @ F,0,0,1,0,0,0,1 @ F,0,0,1,0,0,0,1 @ F,0,0,1,0,0,0,1 @ F,0,0,1,0,0,0,1 @ F,0,0,1,0,0,0,1 @ F,0,0,1,0,0,0,1 @ F,0,0,1,0,0,0,1 @ F,0,0,1,0,0,0,1 @ F,0,0,1,0,0,0,1 @ F,0,1,1,0,19.732403,0,1 @ F,0,1,1,0,19.732403,0,1 @ F,0,0,1,0,0,0,1 @ F,0,0,1,0,0,0,1 @ F,0,0,1,0,0,0,1 @ F,0,0,1,0,19.732403,0,1 @ F,0,1,1,0,19.732403,0,1 @ F,0,0,1,0,0,0,1 @ F,0,0,1,0,0,0,1 @ F,0,0,1,0,0,0,1 @ F,0,0,1,0,0,0,1 @ F,0,0,1,0,0,0,1 @ F,0,0,1,0,0,0,1 @ F,0,0,1,0,0,0,1 @ F,0,0,1,0,0,0,1 @ F,0,0,1,0,0,0,1 @ F,0,0,1,0,0,0,1 @ F,0,0,1,0,0,0,1 @ F,0,0,1,0,0,0,1" unit="px" method="auto" mode="F" radius="0" chamfer_steps="1" flexible="false" use_knot_distance="true" apply_no_radius="true" apply_with_radius="true" only_selected="false" hide_knots="false" /><inkscape:path-effect effect="fillet_chamfer" id="path-effect863" is_visible="true" lpeversion="1" satellites_param="F,0,0,1,0,31.426612,0,1 @ F,0,0,1,0,31.426612,0,1 @ F,0,0,1,0,0,0,1 @ F,0,0,1,0,0,0,1 @ F,0,0,1,0,0,0,1 @ F,0,0,1,0,0,0,1 @ F,0,0,1,0,0,0,1 @ F,0,0,1,0,0,0,1 @ F,0,0,1,0,0,0,1 @ F,0,0,1,0,0,0,1 @ F,0,0,1,0,0,0,1 @ F,0,0,1,0,31.426612,0,1 @ F,0,0,1,0,31.426612,0,1 @ F,0,0,1,0,0,0,1 @ F,0,0,1,0,0,0,1 @ F,0,0,1,0,0,0,1 @ F,0,0,1,0,31.426612,0,1 @ F,0,1,1,0,28.074298,0,1 @ F,0,0,1,0,0,0,1 @ F,0,0,1,0,0,0,1 @ F,0,0,1,0,0,0,1 @ F,0,0,1,0,0,0,1 @ F,0,0,1,0,0,0,1 @ F,0,0,1,0,0,0,1 @ F,0,0,1,0,0,0,1 @ F,0,0,1,0,0,0,1 @ F,0,0,1,0,0,0,1 @ F,0,0,1,0,0,0,1" unit="px" method="auto" mode="F" radius="0" chamfer_steps="1" flexible="false" use_knot_distance="true" apply_no_radius="true" apply_with_radius="true" only_selected="true" hide_knots="false" /><inkscape:path-effect effect="fillet_chamfer" id="path-effect850" is_visible="true" lpeversion="1" satellites_param="F,0,0,1,0,33.316232,0,1 @ F,0,0,1,0,21.58481,0,1 @ F,0,0,1,0,0,0,1 @ F,0,0,1,0,0,0,1 @ F,0,0,1,0,0,0,1 @ F,0,0,1,0,0,0,1 @ F,0,0,1,0,0,0,1 @ F,0,0,1,0,0,0,1 @ F,0,0,1,0,0,0,1 @ F,0,0,1,0,0,0,1 @ F,0,0,1,0,0,0,1 @ F,0,0,1,0,20.387653,0,1 @ F,0,0,1,0,27.435208,0,1 @ F,0,0,1,0,0,0,1 @ F,0,0,1,0,0,0,1 @ F,0,0,1,0,0,0,1 @ F,0,0,1,0,22.815159,0,1 @ F,0,0,1,0,29.964362,0,1 @ F,0,0,1,0,0,0,1 @ F,0,0,1,0,0,0,1 @ F,0,0,1,0,0,0,1 @ F,0,0,1,0,0,0,1 @ F,0,0,1,0,0,0,1 @ F,0,0,1,0,0,0,1 @ F,0,0,1,0,0,0,1 @ F,0,0,1,0,0,0,1 @ F,0,0,1,0,0,0,1" unit="px" method="auto" mode="F" radius="0" chamfer_steps="1" flexible="false" use_knot_distance="true" apply_no_radius="true" apply_with_radius="true" only_selected="true" hide_knots="false" /><inkscape:path-effect effect="spiro" id="path-effect849" is_visible="true" lpeversion="1" /><inkscape:path-effect effect="spiro" id="path-effect851" is_visible="true" lpeversion="1" />
  <svg:style type="text/css" id="style2">
   
    .fil0 {fill:#EF7F1A;fill-rule:nonzero}
   
  </svg:style>
 <inkscape:path-effect effect="spiro" id="path-effect1214" is_visible="true" lpeversion="1" /><inkscape:path-effect effect="spiro" id="path-effect1195" is_visible="true" lpeversion="1" /><inkscape:path-effect effect="spiro" id="path-effect992" is_visible="true" lpeversion="1" /><inkscape:path-effect effect="spiro" id="path-effect1060" is_visible="true" lpeversion="1" /><inkscape:path-effect effect="spiro" id="path-effect1047" is_visible="true" lpeversion="1" /><inkscape:path-effect effect="spiro" id="path-effect1085" is_visible="true" lpeversion="1" /><inkscape:path-effect effect="spiro" id="path-effect1286" is_visible="true" lpeversion="1" /><inkscape:path-effect effect="spiro" id="path-effect868" is_visible="true" lpeversion="1" /><inkscape:path-effect effect="fillet_chamfer" id="path-effect870" is_visible="true" lpeversion="1" satellites_param="F,0,0,1,0,0,0,1 @ F,0,0,1,0,0,0,1 @ F,0,0,1,0,0,0,1 @ F,0,0,1,0,0,0,1 @ F,0,0,1,0,0,0,1 @ F,0,0,1,0,0,0,1 @ F,0,0,1,0,0,0,1 @ F,0,1,1,0,30.932323,0,1 @ F,0,1,1,0,30.932323,0,1 @ F,0,0,1,0,0,0,1 @ F,0,0,1,0,0,0,1 @ F,0,0,1,0,0,0,1 @ F,0,0,1,0,0,0,1 @ F,0,0,1,0,0,0,1 @ F,0,0,1,0,0,0,1 @ F,0,0,1,0,0,0,1 @ F,0,0,1,0,0,0,1 @ F,0,0,1,0,0,0,1 @ F,0,0,1,0,0,0,1 @ F,0,0,1,0,0,0,1 @ F,0,0,1,0,0,0,1 @ F,0,1,1,0,30.932323,0,1 @ F,0,1,1,0,30.932323,0,1 @ F,0,0,1,0,0,0,1 @ F,0,0,1,0,0,0,1 @ F,0,0,1,0,0,0,1" unit="px" method="auto" mode="F" radius="0" chamfer_steps="1" flexible="false" use_knot_distance="true" apply_no_radius="true" apply_with_radius="true" only_selected="true" hide_knots="false" /></svg:defs>
 
<svg:g id="path847"><svg:path style="color:#000000;clip-rule:nonzero;fill:#1a5fb4;fill-rule:nonzero;stroke-linecap:round;stroke-linejoin:round;-inkscape-stroke:none;shape-rendering:auto" d="M 39.578125,-27.755859 C 14.565923,-27.848838 -8.4488631,-6.6360183 -9.1933594,18.845703 -10.047348,48.074997 -10.383854,77.3193 -10.201172,106.56055 -9.6403366,196.33142 -4.2006403,285.6886 3.1796875,374.51172 13.306383,496.3877 25.58158,617.30281 -7.2226562,726.23242 c -3.5106548,11.65747 -7.5306868,23.16451 -12.0410158,34.47461 -4.76201,11.94121 -4.975893,27.18006 2.330078,39.70899 7.3059712,12.52892 21.2351872,20.09358 34.302735,21.47265 l 93.576169,9.875 c 26.83481,2.83198 53.09208,-21.31282 52.23047,-48.4414 -0.7172,-22.58188 -1.82054,-45.15106 -3.30859,-67.69532 -4.08915,-61.95132 -10.53916,-121.50219 -4.20117,-177.82422 4.4702,-39.72411 15.45628,-78.18067 34.90625,-110.64062 18.83769,-31.43813 46.36211,-57.68623 78.33593,-72.33984 6.71479,-3.07739 12.59356,-5.09365 17.38867,-5.86329 4.63054,-0.74322 8.51565,-0.26222 10.60352,0.54102 2.75545,1.06007 7.10342,4.69437 10.28711,10.28711 3.37321,5.92566 5.99543,14.34798 8.14258,24.63281 15.94965,76.39885 -4.29258,160.75598 -14.6543,249.94336 -5.68105,48.89905 -7.65167,98.21793 -5.89648,147.41211 0.97926,27.44677 26.29002,49.18996 53.28125,46.71289 l 113.38086,-10.40625 c 11.68783,-1.07263 28.56563,-7.47447 35.16796,-24.53516 6.60234,-17.06068 -0.83154,-31.93051 -8.00585,-40.79492 -5.81304,-7.18244 -11.12281,-14.77623 -15.86719,-22.69531 -26.05917,-43.49662 -35.21863,-97.96178 -32.32422,-152.00195 2.8388,-53.00208 17.11253,-108.28135 23.47266,-168.0293 4.73546,-44.4857 4.87117,-93.20097 -13.41407,-139.49414 -9.17713,-23.23396 -22.95356,-45.32443 -42.01953,-63.36523 -19.15935,-18.12917 -43.27625,-31.66604 -70.39648,-36.89454 -34.05731,-6.56589 -67.69786,0.79941 -96.32032,14.69922 -28.35583,13.77033 -51.56108,33.47253 -71.64843,53.72266 -14.37932,14.49584 -27.72432,29.95248 -39.9961,46.19922 0.83222,-57.83718 4.82336,-114.36112 18.79102,-167.66211 6.37543,-24.328834 14.83976,-48.124927 25.25586,-71.023439 5.29802,-11.647049 6.3313,-27.070121 -0.72656,-40.050781 -7.05787,-12.9806599 -21.10956,-20.73648 -34.07227,-22.285156 l -94.736328,-11.31836 c -1.679224,-0.200619 -3.355957,-0.302395 -5.023437,-0.308593 z m 10.9375,61.441406 60.605465,7.240234 C 103.06648,60.828749 96.284357,81.24507 90.839844,102.02148 70.146685,180.98716 69.327296,261.40688 69.986328,338.625 c 0.143241,16.78343 0.571208,33.56233 0.867188,50.34375 -1.814355,4.41728 -3.524375,8.87288 -5.203125,13.34375 -0.92781,-10.88665 -1.780957,-22.00021 -2.675782,-32.76953 C 55.668003,281.60709 50.346062,193.77933 49.798828,106.18555 49.647838,82.017067 49.940792,57.847722 50.515625,33.685547 Z M 312.53906,227.91211 c 4.85645,-0.0189 9.60044,0.39512 14.15625,1.27344 14.4718,2.79001 28.90962,10.57869 40.51758,21.5625 11.70135,11.07217 21.06929,25.66406 27.45313,41.82617 12.83669,32.49896 13.78844,71.34735 9.55664,111.10156 -5.72895,53.81858 -20.45516,110.12731 -23.72461,171.16992 -3.36347,62.7979 6.69374,129.17261 40.76757,186.04688 0.12053,0.20117 0.26175,0.38901 0.38282,0.58984 l -67.10938,6.1582 c -0.95152,-42.18654 0.867,-84.4413 5.73633,-126.35351 9.74188,-83.85221 33.43807,-175.00077 13.78711,-269.12891 -2.67541,-12.8152 -6.42938,-27.47231 -14.73047,-42.05468 -8.4906,-14.9153 -21.61973,-29.18846 -40.88867,-36.60157 -14.41592,-5.54606 -28.82529,-5.84426 -41.6543,-3.78515 -12.66443,2.03269 -23.5185,6.27066 -32.8789,10.56054 -44.56308,20.42328 -80.37048,55.26354 -104.80664,96.04493 -2.79063,4.65726 -5.37695,9.39802 -7.8711,14.17382 -0.0692,-3.18075 -0.10037,-6.3621 -0.16406,-9.54297 19.80579,-44.52018 47.44615,-85.55988 81.61523,-120.00585 17.4091,-17.55018 35.72313,-32.51546 55.26172,-42.00391 14.45398,-7.01923 30.0244,-10.97471 44.59375,-11.03125 z M 93.695312,561.83008 c -2.656989,54.35118 2.962388,107.14116 6.302735,157.74804 1.120583,16.97707 1.945343,33.97178 2.615233,50.97266 l -59.181639,-6.24609 c 2.416205,-6.87298 4.695835,-13.79283 6.796875,-20.76953 17.808151,-59.13368 23.759119,-119.28543 24.097656,-179.11914 z" id="path11687" /></svg:g></svg:svg>
